icons/Design/layout-bottom-fill.svg

<svg viewBox="0 0 24 24" xmlns="http://www.w3.org/2000/svg"><path d="M22 16V20C22 20.5523 21.5523 21 21 21H3C2.44772 21 2 20.5523 2 20V16H22ZM21 3C21.5523 3 22 3.44772 22 4V14H2V4C2 3.44772 2.44772 3 3 3H21Z"/></svg>

<svg xmlns="http://www.w3.org/2000/svg" viewBox="0 0 24 24">
    <g>
        <path fill="none" d="M0 0h24v24H0z"/>
        <path d="M22 16v4a1 1 0 0 1-1 1H3a1 1 0 0 1-1-1v-4h20zM21 3a1 1 0 0 1 1 1v10H2V4a1 1 0 0 1 1-1h18z"/>
    </g>
</svg>
